X: 1
T: If You Will Not Have Me, You May Let Me Go
M: 3/2
L: 1/8
R: three-two
K: Bmin
|: F2B2- B2d2 c2B2 | A2c2- c2e2 d2c2 | 
d2f2 f2e2 d2A2 |1 edcB A2 c2 d2 c2 :|2 edcB A2c2 B4 ||
|: f2B2- B2g2 f4 | bagf e2d2 c2B2 | 
G2B2 B2d2 c2A2 |1 edcB A2 c2 d2 c2 :|2 edcB A2c2 B4 ||
|: B,2D2- D2F2 B2F2 | E2G2- G2c2 A2c2 | 
B2d2 d2F2 D2C2 |1 EDCB, A,2 C2 D2 C2 :|2 EDCB, A,2 C2 B,4 ||
|: d2B2- B2G2 E2A2 | edcB A2 f2 d2 F2 | 
B2G2 G2E2 F2D2 |1 EDCB, A,2 C2 D2 C2 :|2 E4 F4 B,4 ||
